X:254
T:On The Move
C:Chris Thile (Live at Prism Coffeehouse, Charlottesville, VA)
N:TablEdited by Steve Keating
L:1/8
Q:1/4=300
M:4/4
K:A
z7/1d | "First Break""A"ee ee ee ce | "D"fe fa "A"ec AD | "Bm"B,F Bd zA FA | "E"EG BG Ae ed | 
"A"ee ee ee ce | "D"fe fa "A"ec AF | "Bm"B,F Bd BA FA | "E"EG BG "A"A2 de | ee Ac e2 ce | 
"D"fe fa "A"ec AF | "Bm"B,F Bd BA FA | "E"E=c ^c2 =cB A2 | "A"F=G eA ce f2 | "D"ef ae "A"dc e2 | 
"Bm"=c^c fe =cB AF | "E"EF =G^G "A"A4 | "E"AB ze Be AB | ee BA GF EF | Ge BG "D"e2 ef | 
"A"af ed "D"cB Ae | "E"AB ee Be AB | ee BA GF EF | "D"AA AA AB de | "E"fd ef "A"ga a2 | 
"E"ab =g^g ed ee | gb be gb d'd' | d'e bd' "D"e'b d'b | "A"=c'^c' af "D"e2 ee | 
"E"ef =g^g ed B^A | AG EG "D"FE DB, | "Bm"{^A,}B,F Bc de fa | "E"ge dB "A"A4 | 
"Second Break"ac' c'b af e2 | fe fg af ec | Bc de fg af | =g^g e=f ^fd BG | AA ec Aa ec | 
af df ed ce | Bc dB FA GE | FE DB, CE DC | A,B, CD EF =GE | =F^F Ad fa d'a | c'2 b2 bc' d'c' | 
ba ga bg e=f | fd Bd cB AG | FA d2 cd ec | Bc de fd ee | bg ee ef ea | fe ab bb ba | 
ga bg e2 f/g/b | c'g bc' d'f' d'c' | bc' d'b =c'^c' ac' | bc' d'e' d'c' ba | =g^g e2 ef ge | 
af df ed Bd | cA BG AF GB | AG EF GA Be | fd Bd (3ged Bd | (3fed eg a2 =g^g | 
ed (3Bde (3fed (3efg | b2 be ba gb | ag fa gf ef | ze f/e/d ed Bd | cB AF ED CB, | 
A,6 A2 | "Third Break"ac' ze c'b ae | fg af ec Ac | Bc de fg ae | gb ze ac' ze | 
c'b ac'/e'/ ze' ^d'e' | ee' a'2 a'=g' e'd' | f'e' c'e' c'b ab | c'a ed ca ec | 
AB ce a2 c'e' | d'2 bd' c'b ac' | be bc' d'c' ba | ga bg ef ed | ca ec AB GA | 
FA ce dc BA | FG Bc de f^d | ef =g^g ae =g^g | =g2 e^a ba/b/ ze | =g^g =g^g e^a ba | 
be c'd' c'd' ^ab | ^ab =g^g =g^g ef | ed Bc df ed | e=g ^ge dB ed | Bc de fg af | 
ed cB Ae AB | ee Bd ee dc | ed ee ed ee | fe fe ef ae | ag eg fe fg | eg ae ag eg | 
fe fg ee ze | e/d/B B2 Bc de | fd (3efg a4 | z8 | z8 | 
 

